Obsidian-SemiLight/actions/16s/help-whatsthis.svg

<svg viewBox="0 0 16 16" xmlns="http://www.w3.org/2000/svg"><path d="m7.5 3.0058594c-3.0375 0-5.5 2.4605469-5.5 5.4980468 0 3.0374998 2.4625 5.4999998 5.5 5.4999998.16875 0 .335-.01039.5-.02539v-1.025391c-.1665.01875-.32825.050781-.5.050781-2.4855 0-4.5-2.0145-4.5-4.4999998 0-2.4855 2.0145-4.5 4.5-4.5s4.5 2.0145 4.5 4.5c0 .17175-.032031.3354532-.050781.5019532h1.02539c.015-.165.025391-.3332031.025391-.5019532 0-3.0374999-2.4625-5.4980468-5.5-5.4980468zm-.5 2v1h1v-1zm0 2v4.9999996h1v-4.9999996zm1.9960938.9941406.0039062 7 2-3h3l-5.0019531-4z" fill="#4d4d4d"/></svg>

<svg xmlns="http://www.w3.org/2000/svg" viewBox="0 0 16 16">
  <defs id="defs3051">
    <style type="text/css" id="current-color-scheme">
      .ColorScheme-Text {
        color:#4d4d4d;
      }
      </style>
  </defs>
 <path style="fill:currentColor;fill-opacity:1;stroke:none" 
     d="M 7.5 3.0058594 C 4.4625 3.0058594 2 5.4664063 2 8.5039062 C 2 11.541406 4.4625 14.003906 7.5 14.003906 C 7.66875 14.003906 7.835 13.993516 8 13.978516 L 8 12.953125 C 7.8335 12.971875 7.67175 13.003906 7.5 13.003906 C 5.0145 13.003906 3 10.989406 3 8.5039062 C 3 6.0184062 5.0145 4.0039062 7.5 4.0039062 C 9.9855 4.0039062 12 6.0184062 12 8.5039062 C 12 8.6756562 11.967969 8.8393594 11.949219 9.0058594 L 12.974609 9.0058594 C 12.989609 8.8408594 13 8.6726563 13 8.5039062 C 13 5.4664063 10.5375 3.0058594 7.5 3.0058594 z M 7 5.0058594 L 7 6.0058594 L 8 6.0058594 L 8 5.0058594 L 7 5.0058594 z M 7 7.0058594 L 7 12.005859 L 8 12.005859 L 8 7.0058594 L 7 7.0058594 z M 8.9960938 8 L 9 15 L 11 12 L 14 12 L 8.9980469 8 L 8.9960938 8 z "
     class="ColorScheme-Text"
     />
</svg>
